src/22/actions/text-flow-into-frame.svg

<svg xmlns="http://www.w3.org/2000/svg" viewBox="0 0 22 22"><path d="M3 3v16h8v-1H4V4h14v8h1V3H3zm2 2v1h12V5H5zm0 2v1h9V7H5zm0 3v1h12v-1H5zm0 2v1h4v-1H5zm0 3v1h9v-1H5zm7 2v1h3v-1h-3z" fill="currentColor" color="#5d656b"/><path d="M11 12v1h4.5a2.495 2.495 0 0 1 1.5 4.49V16h-1v3h3v-1h-1.076A3.449 3.449 0 0 0 19 15.5c0-1.939-1.561-3.5-3.5-3.5H11z" fill="currentColor" color="#3daee9"/></svg>

<svg xmlns="http://www.w3.org/2000/svg" viewBox="0 0 22 22">
  <defs id="defs3051">
    <style type="text/css" id="current-color-scheme">
      .ColorScheme-Text {
        color:#5d656b;
      }
      .ColorScheme-Highlight {
        color:#3daee9;
      }
      </style>
  </defs>
 <path 
     style="fill:currentColor;fill-opacity:1;stroke:none" 
     d="M 3 3 L 3 19 L 11 19 L 11 18 L 4 18 L 4 4 L 18 4 L 18 12 L 19 12 L 19 3 L 3 3 z M 5 5 L 5 6 L 17 6 L 17 5 L 5 5 z M 5 7 L 5 8 L 14 8 L 14 7 L 5 7 z M 5 10 L 5 11 L 17 11 L 17 10 L 5 10 z M 5 12 L 5 13 L 9 13 L 9 12 L 5 12 z M 5 15 L 5 16 L 14 16 L 14 15 L 5 15 z M 12 17 L 12 18 L 15 18 L 15 17 L 12 17 z "
     class="ColorScheme-Text"
     />
 <path 
     style="fill:currentColor;fill-opacity:1;stroke:none" 
     d="M 11 12 L 11 13 L 15 13 L 15.5 13 C 16.885 13 18 14.115 18 15.5 C 18 16.3187 17.60449 17.035134 17 17.490234 L 17 16 L 16 16 L 16 17.949219 L 16 18 L 16 18.951172 L 16 19 L 17 19 L 19 19 L 19 18 L 17.923828 18 C 18.581798 17.3681 19 16.4903 19 15.5 C 19 13.561 17.439 12 15.5 12 L 11 12 z "
     class="ColorScheme-Highlight"
     />
</svg>
